X:0656
T:Lochail's March.
M:6/8
L:1/8
Q:3/8=76
I: :: :: :: :: :: ::|| (i.e. two sets after the last variation - da capo?)
N:there seem to be a few wrong notes
Z:Jack Campin * www.campin.me.uk * 2009
K:G 
TdBB          e>fg       |TdBB        TB2G |TdBB          e>~fg      | dBG           A2G |
TdBB       {f}e/d/e/f/g  |TdBB        TBAG | A3           cde        | dBG          TA2G:|
TdBB          eBB        |TdBB        TB2G |TdBB          eBB        | dBG          TA2G |
TdBB         TeBB        |TeBB        TB>AG| A3        {d}c/B/d/e/f  | dBG          TA2G:|
(B//c//d3/G) (c//d//e3/G)|(B//c//d3/G) B2G |(B//c//d3/G) (c//d//e3/G)| dBG           A2G |
(B//c//d3/G) (c//d//e3/G)|(d<B)g       B2G | A3           c>de       | dBG          TA2G:|
 GTB2         GB2        | GTB2       TB2G | GTB2         GTB2       | G/B/gB       TA2G |
 GTB2         GB2        | GTB2       TB2G | A3           c/B/c/d/e  | dBG          TA2G:|
Td3          Te3         |Td3         TB2G |Td3          Te3         |TdBG          TA2G |
Td3          Tf3         | dgB         BAG | A2B          c/B/c/d/e  | dBG          TA2G:|
 gdd          gee        | gdd        TB2G | gdd          gee        | dBG          TA2G |
 gdd          gee        | gdd         B>AG| A3           efg        | e/d/c/B/A/G/ TA2G:|

